X:15
T:Jockey and Jenny
Z:robin.beech@mcgill.ca
B:John of the Green, The Cheshire Way
M:6/4
L:1/4
K:Am
B | c>d e c<A B | c>d e c<A B | c>d ef ed | eBA ^G<E B |
c>dec<AB | c>dec<AB | c>defe^d | e3 e2 ||
d | e>fge<ca | g2ed>cB | ceaBdg | Acf^G<Ec | B2A^GBG | A3A2 |]
